!!!OTL: 975a. Reigen am Johannisfeste (Rosentanz).
!!!ARE: Europa, Mitteleuropa, Deutschland, Rheinland, Bonn, Poppelsdorf
!!!SCT: E0975
!!!TXL: @@DE
!!!YEM: Copyright 1995, estate of Helmut Schaffrath.
**kern	**text
*ICvox	*
*M2/4	*
*k[f#c#]	*
*D:	*
=1	=1
!LO:TX:a:t=Solo.	!
!LO:TX:a:t=Eine im Kreiſe ſtehende Jungfrau hat Alles das ʒu thun, was die ſie umtanʒenden Burſchen und Mädchen singen.	!
{8a	Nimm
8dd	ſie_bei
8dd	der
8dd	ſchnee-
=2	=2
(8dd	-wei-
8b)	-ßen
8a}	Hand
{8a	und
=3	=3
8b/	führ
8a	ſie
8g	in
8f#	den
=4	=4
8e	Ro-
8e	-ſen-
4e}	-kranʒ.
=5	=5
!LO:TX:a:t=Chor-Refrain.	!
{8d	Blau
8f#	blau
8a	Blu-
8a	-men
=6	=6
8b/	auf
8b/	mein'
4b/}	Hut,
=7	=7
{8d	Hätt
8f#	ich
8a	Geld
8a	und
=8	=8
8b/	das
8b/	wär
4b/}	gut,
=9	=9
{8g	Blu-
8g	-men
8f#	auf
8f#	mein
=10	=10
4e	Hüt-
4d}	-chen!
==	==
!!!AGN: Tanz - Lied, Reigen, Spiel, Johannis - Fest
!!!ONB: ESAC (Essen Associative Code) Database: ERK2
!!!AMT: simple duple
!!!AIN: vox
!!!EED: Helmut Schaffrath
!!!EEV: 1.0
!!!GTL: Tanz- und Spiellieder.
!!!URL-scan: https://rosdok.uni-rostock.de/mcrviewer/recordIdentifier/rosdok_ppn745177662/iview2/phys_0745.iview2?x=-167.68545784026423&y=1881.5445709279738&scale=0.6546206717328796&rotation=0&layout=singlePageLayout
!!!ENC: Anna Maria Matuszewska
!!!EEV: 2024/12/20
*-	*-
